X:111
T:Says Bonney I’ll Invade You! RHu.111
S:R.Hughes MS,1823,Whitchurch,Shrops.
N:No repeats in MS. NeilB
A:Whitchurch, Shropshire
Z:Neil Brookes 2006
M:2/4
L:1/8
Q:1/2=100
R:Reel
K:G
D|GG BG|d2 BG|cABG|FAAF|GG BG|d2 BG|cAGF|G3:|!
|:eed2|ccB2|ABcA|dFG2:|

